X: 1
T: Jeg gikk meg ut i lunden gr\onn
O: Norway
M: 2/4
L: 1/16
K: G
D | "G"D2G2 G2-GA | "D"F2D2 F3G | "C"E2C2 C2E2 | "D"~E2D2 D3 ||
w: Jeg gikk meg ut* i lun-den gr\onn, der m\ot-te meg ei pi-ga skj\onn.
D | "G"D2G2 G2-GA | "D"F2D2 F3G | "C"E2C2 "D"D2F2 | "G"G4 z4 |]
w: "\AA  vi' du ve-*ra ven-nen  min og f\ol-ga med meg hjem?"
  [| "G"G2GB d4 | "F"c2AA A2A2 | "F"=F2FA cddc | "G"B2G2 D3 |
w: Sjung fad-der-ri, sjung fad-de-ral-la, sjung fad-der-ri, og fad-de-ral-la lei.
D |  "G"D2G2 G3A | "D"F2D2 F3G | "C"E2C2 "D"D2F2 | "G"G4 z3 |]
w: Vi' du ve-ra ven-nen  min og f\ol-ga med meg hjem?"
%
W: Jeg gikk meg ut i lunden gr\onn, der m\otte meg ei piga skj\onn.
W: "\AA  vi' du vera vennen  min og f\olga med meg hjem?"
W: Refrain:
W:     Sjung fadderri, sjung fadderalla, sjung fadderri, og fadderalla lei.
W:     (Repeat last 2 lines of verse)
W:
W: "Om \aatte dagar sko du f\aa svar, n\aar eg hev fr\aaga mor or far.
W: Og viss at det \ae viljen din, s\aa sko eg bliva din."
W:
W: N\aar \aatte dagar forgangne var, da pigan seg en anden tar.
W: Et oppslagsbrev hun til meg skrev, ho sviki har sin ven.
W:
W: "Adj\o min far, adj\o min mor, adj\o min s\oster og lilla bror.
W: No reiser eg til fremmande land, kjem alli meir igjen."
W: - - - - - - - - - - - - - - - - - - - - - - - - - - - - - - - - - - - - - - -
W: I went out into the green grove, there I met a beautiful girl.
W: "Oh, will you be my friend, and come home with me?"
W:      Sing tralala, ...
W:
W: "In eight days you will have an answer, when I've asked my mother and father.
W: And if it is what you want, I will be yours."
W:
W: When eight days had passed, the girl had taken another.
W: She wrote me a letter breaking the engagement, she has betrayed her friend.
W:
W: "Good-bye my father, good-bye my mother, good-bye my sister and little brother.
W: I am leaving  now for a foreign land, never to return."
